X: 485
T: Grace O'Malley
N:"Moderate"
N:Irish title: graine ua .maille
B:O'Neill's 485
Z:Transcribed by henrik.norbeck@mailbox.swipnet.se
M:C
L:1/8
K:Gm
(G/A/B/c/) | (ded).c B2 (fd) | c2 d2 F2 (GA) | (BGcB) (.G2 .G2) | G6 (G/A/B/c/) |
(ded).c B2 (fd) | c2 d2 F2 (GA) | (BGcB) (.G2 .G2) | G6 ||
(GA) | .B.c.d.=e f2 (ef) | g2 d2 c2 (Bc) | d2 c2 (.d.=e.f.d) | g6 (g=e) |
(f2 g2) (d2 {ed}cB) | (c2 d2) (F2 GA) | (BGcB) (.G2 .G2) | G6 ||


